proprietary/assets/icons/computer-en-internet/ict.svg

<svg height="64" viewBox="0 0 64 64" width="64" xmlns="http://www.w3.org/2000/svg"><path d="m0 0h64v64h-64z" fill="none"/><path d="m34.399 17.0851c1.103 1.5541 2.0573 3.2209 2.8019 5.0007 1.5825-.5133 3.2361-.8611 4.9336-1.0637.4382-1.7336 1.9956-3.0221 3.8655-3.0221 1.9568 0 3.5791 1.407 3.9257 3.2632 1.3909.2589 2.7462.6213 4.0511 1.0917-3.2131-7.3102-9.9622-12.7109-18.0847-14.036-.8224 1.1852-1.5531 2.4373-2.2055 3.7357.8016.7315 1.3134 1.7747 1.3134 2.9454 0 .7669-.2267 1.4764-.601 2.0851z"/><path d="m32.9572 18.4684c-.5289.2993-1.127.4826-1.7706.5128-.4669 2.0616-.7251 4.2019-.7549 6.3979.0173.0095.035.0184.0521.0283 1.5087-1.0404 3.1302-1.9271 4.8454-2.634-.642-1.5233-1.4438-2.9613-2.372-4.305z"/><path d="m49.8563 40.129c.0847.2774.1437.5659.1437.871 0 1.6569-1.3431 3-3 3-.9227 0-1.7378-.4255-2.2881-1.0808-1.8276.7396-3.7571 1.276-5.7626 1.5834-.0826.6514-.3065 1.2569-.6636 1.7716 2.0114 2.2387 4.3312 4.193 6.9153 5.7665 5.9113-3.9018 9.9938-10.3457 10.6895-17.7769-1.6799 2.266-3.7212 4.247-6.0342 5.8652z"/><path d="m46 26c-1.8504 0-3.3921-1.2629-3.849-2.9692-1.4619.187-2.8877.4894-4.2557.9263.8449 2.5595 1.3088 5.2908 1.3088 8.1298 0 3.1306-.5684 6.1276-1.5887 8.9089.4753.4141.8565.929 1.0942 1.5241 1.8439-.2867 3.6174-.7817 5.2961-1.4635-.0004-.0192-.0057-.0371-.0057-.0564 0-1.6569 1.3431-3 3-3 .6215 0 1.1987.189 1.6776.5126 2.9877-2.0834 5.4857-4.8215 7.2706-8.0175-.1205-1.9455-.4677-3.8296-1.0245-5.6223-1.6276-.7225-3.353-1.2621-5.1471-1.609-.5312 1.5859-2.0119 2.7362-3.7766 2.7362z"/><path d="m31 11c.3179 0 .6232.0464.9197.1165.5329-1.0493 1.1147-2.0697 1.7518-3.052-.5529-.0381-1.1089-.0645-1.6715-.0645-2.3918 0-4.6999.3546-6.8799 1.006 1.3909.7217 2.7031 1.571 3.9363 2.5181.5777-.3238 1.2342-.5241 1.9436-.5241z"/><path d="m26 28c0-1.4635 1.049-2.6786 2.4355-2.9431.0507-2.223.3254-4.3902.8022-6.4827-1.3211-.6531-2.2377-2.0008-2.2377-3.5742 0-.765.2258-1.4726.5983-2.0802-1.5691-1.1781-3.2701-2.1898-5.1039-2.9597-4.8585 2.0983-8.8832 5.7554-11.4491 10.3416.2131 3.4967 1.1817 6.7869 2.7341 9.7206.0745-.0042.145-.0223.2206-.0223 2.2092 0 4 1.7908 4 4 0 .5177-.1061 1.0088-.2851 1.4629.9242.9595 1.9251 1.8445 2.9971 2.6401 1.2067-3.3801 3.1-6.4323 5.5023-9.0045-.1346-.3409-.2143-.7097-.2143-1.0985z"/><path d="m27.5289 30.5995c-2.2665 2.4683-4.0244 5.4092-5.1035 8.6628 2.6553 1.6369 5.6569 2.7588 8.8655 3.2561.2136-.5342.5375-1.0092.9459-1.4008-1.6562-3.1139-2.8177-6.5269-3.3938-10.1335-.4775-.0251-.9214-.1618-1.3141-.3846z"/><path d="m32.1436 46.7944c-.5932-.6063-.9795-1.4034-1.0925-2.2879-3.3066-.5075-6.4125-1.6308-9.1885-3.2635-.4263 1.7905-.6584 3.6561-.6584 5.577 0 2.4856.3922 4.8766 1.0941 7.1312.1298.0575.2575.1188.3885.174 3.7442-1.6135 6.9855-4.1563 9.4568-7.3308z"/><path d="m16.5243 37.0793c-.6903.5666-1.5616.9207-2.5243.9207-2.2092 0-4-1.7909-4-4 0-1.4172.7416-2.6551 1.8533-3.3656-1.1024-2.1496-1.9183-4.4692-2.3869-6.912-.9482 2.5803-1.4664 5.3684-1.4664 8.2776 0 8.8387 4.7812 16.5561 11.8952 20.721-.4445-1.8973-.6911-3.8699-.6911-5.901 0-2.3235.3108-4.5749.8853-6.7197-1.2786-.8985-2.4693-1.9127-3.5651-3.021z"/><path d="m36.7683 47.571c-.5352.2658-1.1301.429-1.7683.429-.3962 0-.7712-.0753-1.1325-.1826-2.2816 2.9847-5.1866 5.4658-8.5287 7.2386 2.1159.6104 4.3489.944 6.6612.944 4.0764 0 7.9134-1.0195 11.2755-2.8125-2.4113-1.5786-4.5922-3.476-6.5072-5.6165z"/><path d="m35 40c.2828 0 .5579.031.8241.0868.8874-2.5031 1.38-5.1925 1.38-7.9999 0-2.5992-.4185-5.0995-1.1827-7.4436-1.4924.6187-2.9074 1.3848-4.2294 2.2785.1297.3355.208.6969.208 1.0782 0 .9861-.4822 1.8534-1.2167 2.4002.5218 3.4733 1.6188 6.756 3.202 9.7458.3259-.0858.6619-.146 1.0147-.146z"/></svg>

<?xml version="1.0" encoding="utf-8"?>
<!-- Generator: Adobe Illustrator 17.1.0, SVG Export Plug-In . SVG Version: 6.00 Build 0)  -->
<svg version="1.2" baseProfile="tiny" xmlns="http://www.w3.org/2000/svg" xmlns:xlink="http://www.w3.org/1999/xlink" x="0px"
	 y="0px" width="64px" height="64px" viewBox="0 0 64 64" xml:space="preserve">
<g id="Box">
	<rect fill="none" width="64" height="64"/>
</g>
<g id="Icon">
	<g>
		<path d="M34.399,17.0851c1.103,1.5541,2.0573,3.2209,2.8019,5.0007c1.5825-0.5133,3.2361-0.8611,4.9336-1.0637
			C42.5727,19.2885,44.1301,18,46,18c1.9568,0,3.5791,1.407,3.9257,3.2632c1.3909,0.2589,2.7462,0.6213,4.0511,1.0917
			c-3.2131-7.3102-9.9622-12.7109-18.0847-14.036c-0.8224,1.1852-1.5531,2.4373-2.2055,3.7357C34.4882,12.7861,35,13.8293,35,15
			C35,15.7669,34.7733,16.4764,34.399,17.0851z"/>
		<path d="M32.9572,18.4684c-0.5289,0.2993-1.127,0.4826-1.7706,0.5128c-0.4669,2.0616-0.7251,4.2019-0.7549,6.3979
			c0.0173,0.0095,0.035,0.0184,0.0521,0.0283c1.5087-1.0404,3.1302-1.9271,4.8454-2.634
			C34.6872,21.2501,33.8854,19.8121,32.9572,18.4684z"/>
		<path d="M49.8563,40.129C49.941,40.4064,50,40.6949,50,41c0,1.6569-1.3431,3-3,3c-0.9227,0-1.7378-0.4255-2.2881-1.0808
			c-1.8276,0.7396-3.7571,1.276-5.7626,1.5834c-0.0826,0.6514-0.3065,1.2569-0.6636,1.7716
			c2.0114,2.2387,4.3312,4.193,6.9153,5.7665c5.9113-3.9018,9.9938-10.3457,10.6895-17.7769
			C54.2106,36.5298,52.1693,38.5108,49.8563,40.129z"/>
		<path d="M46,26c-1.8504,0-3.3921-1.2629-3.849-2.9692c-1.4619,0.187-2.8877,0.4894-4.2557,0.9263
			c0.8449,2.5595,1.3088,5.2908,1.3088,8.1298c0,3.1306-0.5684,6.1276-1.5887,8.9089c0.4753,0.4141,0.8565,0.929,1.0942,1.5241
			c1.8439-0.2867,3.6174-0.7817,5.2961-1.4635C44.0053,41.0372,44,41.0193,44,41c0-1.6569,1.3431-3,3-3
			c0.6215,0,1.1987,0.189,1.6776,0.5126c2.9877-2.0834,5.4857-4.8215,7.2706-8.0175c-0.1205-1.9455-0.4677-3.8296-1.0245-5.6223
			c-1.6276-0.7225-3.353-1.2621-5.1471-1.609C49.2454,24.8497,47.7647,26,46,26z"/>
		<path d="M31,11c0.3179,0,0.6232,0.0464,0.9197,0.1165c0.5329-1.0493,1.1147-2.0697,1.7518-3.052C33.1186,8.0264,32.5626,8,32,8
			c-2.3918,0-4.6999,0.3546-6.8799,1.006c1.3909,0.7217,2.7031,1.571,3.9363,2.5181C29.6341,11.2003,30.2906,11,31,11z"/>
		<path d="M26,28c0-1.4635,1.049-2.6786,2.4355-2.9431c0.0507-2.223,0.3254-4.3902,0.8022-6.4827C27.9166,17.9211,27,16.5734,27,15
			c0-0.765,0.2258-1.4726,0.5983-2.0802c-1.5691-1.1781-3.2701-2.1898-5.1039-2.9597c-4.8585,2.0983-8.8832,5.7554-11.4491,10.3416
			c0.2131,3.4967,1.1817,6.7869,2.7341,9.7206C13.8539,30.0181,13.9244,30,14,30c2.2092,0,4,1.7908,4,4
			c0,0.5177-0.1061,1.0088-0.2851,1.4629c0.9242,0.9595,1.9251,1.8445,2.9971,2.6401c1.2067-3.3801,3.1-6.4323,5.5023-9.0045
			C26.0797,28.7576,26,28.3888,26,28z"/>
		<path d="M27.5289,30.5995c-2.2665,2.4683-4.0244,5.4092-5.1035,8.6628c2.6553,1.6369,5.6569,2.7588,8.8655,3.2561
			c0.2136-0.5342,0.5375-1.0092,0.9459-1.4008c-1.6562-3.1139-2.8177-6.5269-3.3938-10.1335
			C28.3655,30.959,27.9216,30.8223,27.5289,30.5995z"/>
		<path d="M32.1436,46.7944c-0.5932-0.6063-0.9795-1.4034-1.0925-2.2879c-3.3066-0.5075-6.4125-1.6308-9.1885-3.2635
			c-0.4263,1.7905-0.6584,3.6561-0.6584,5.577c0,2.4856,0.3922,4.8766,1.0941,7.1312c0.1298,0.0575,0.2575,0.1188,0.3885,0.174
			C26.431,52.5117,29.6723,49.9689,32.1436,46.7944z"/>
		<path d="M16.5243,37.0793C15.834,37.6459,14.9627,38,14,38c-2.2092,0-4-1.7909-4-4c0-1.4172,0.7416-2.6551,1.8533-3.3656
			c-1.1024-2.1496-1.9183-4.4692-2.3869-6.912C8.5182,26.3027,8,29.0908,8,32c0,8.8387,4.7812,16.5561,11.8952,20.721
			c-0.4445-1.8973-0.6911-3.8699-0.6911-5.901c0-2.3235,0.3108-4.5749,0.8853-6.7197
			C18.8108,39.2018,17.6201,38.1876,16.5243,37.0793z"/>
		<path d="M36.7683,47.571C36.2331,47.8368,35.6382,48,35,48c-0.3962,0-0.7712-0.0753-1.1325-0.1826
			c-2.2816,2.9847-5.1866,5.4658-8.5287,7.2386C27.4547,55.6664,29.6877,56,32,56c4.0764,0,7.9134-1.0195,11.2755-2.8125
			C40.8642,51.6089,38.6833,49.7115,36.7683,47.571z"/>
		<path d="M35,40c0.2828,0,0.5579,0.031,0.8241,0.0868c0.8874-2.5031,1.38-5.1925,1.38-7.9999c0-2.5992-0.4185-5.0995-1.1827-7.4436
			c-1.4924,0.6187-2.9074,1.3848-4.2294,2.2785C31.9217,27.2573,32,27.6187,32,28c0,0.9861-0.4822,1.8534-1.2167,2.4002
			c0.5218,3.4733,1.6188,6.756,3.202,9.7458C34.3112,40.0602,34.6472,40,35,40z"/>
	</g>
</g>
</svg>
